src/assets/MatrixFieldPreviewSettings/dist/img/no-dummy-image.svg

<svg clip-rule="evenodd" fill-rule="evenodd" stroke-linejoin="round" stroke-miterlimit="2" viewBox="0 0 32 32" xmlns="http://www.w3.org/2000/svg"><g fill-rule="nonzero"><path d="m4 4v2h2v-2zm4 0v2h2v-2zm4 0v2h2v-2zm4 0v2h2v-2zm4 0v2h2v-2zm4 0v2h2v-2zm-20 4v2h2v-2zm20 0v2h2v-2zm-20 4v2h2v-2zm20 0v2h2v-2zm-9.5 1-.312.406-1.188 1.594h-5v13h20v-13h-5l-1.187-1.594-.313-.406zm1 2h5l1.188 1.594.312.406h4v9h-16v-9h4l.313-.406zm-11.5 1v2h2v-2zm14 1c-2.197 0-4 1.803-4 4s1.803 4 4 4 4-1.803 4-4-1.803-4-4-4zm0 2c1.116 0 2 .884 2 2s-.884 2-2 2-2-.884-2-2 .884-2 2-2zm-14 1v2h2v-2z" fill="#d5d8dd" fill-opacity=".8" transform="matrix(.612706 0 0 .612706 6.19671 6.19671)"/><path d="m324.25 243.813 150.844-150.844c16.667-16.667 16.667-43.688 0-60.328l-20.109-20.11c-16.672-16.672-43.693-16.672-60.334 0l-150.838 150.839-150.844-150.87c-16.667-16.667-43.688-16.667-60.328 0l-20.141 20.109c-16.667 16.672-16.667 43.693 0 60.334l150.87 150.87-150.839 150.838c-16.672 16.672-16.672 43.693 0 60.334l20.11 20.109c16.666 16.667 43.687 16.667 60.328 0l150.844-150.844 150.838 150.844c16.672 16.667 43.693 16.667 60.334 0l20.109-20.109c16.667-16.672 16.667-43.693 0-60.334z" fill="#f3a0a1" transform="matrix(.00926345 0 0 .00926345 18.4508 7.80696)"/></g></svg>

<?xml version="1.0" encoding="UTF-8" standalone="no"?>
<!DOCTYPE svg PUBLIC "-//W3C//DTD SVG 1.1//EN" "http://www.w3.org/Graphics/SVG/1.1/DTD/svg11.dtd">
<svg width="100%" height="100%" viewBox="0 0 32 32" version="1.1" xmlns="http://www.w3.org/2000/svg" xmlns:xlink="http://www.w3.org/1999/xlink" xml:space="preserve" xmlns:serif="http://www.serif.com/" style="fill-rule:evenodd;clip-rule:evenodd;stroke-linejoin:round;stroke-miterlimit:2;">
    <rect x="0" y="0" width="32" height="32" style="fill:white;"/>
    <g transform="matrix(0.612706,0,0,0.612706,6.19671,6.19671)">
        <path d="M4,4L4,6L6,6L6,4L4,4ZM8,4L8,6L10,6L10,4L8,4ZM12,4L12,6L14,6L14,4L12,4ZM16,4L16,6L18,6L18,4L16,4ZM20,4L20,6L22,6L22,4L20,4ZM24,4L24,6L26,6L26,4L24,4ZM4,8L4,10L6,10L6,8L4,8ZM24,8L24,10L26,10L26,8L24,8ZM4,12L4,14L6,14L6,12L4,12ZM24,12L24,14L26,14L26,12L24,12ZM14.5,13L14.188,13.406L13,15L8,15L8,28L28,28L28,15L23,15L21.813,13.406L21.5,13L14.5,13ZM15.5,15L20.5,15L21.688,16.594L22,17L26,17L26,26L10,26L10,17L14,17L14.313,16.594L15.5,15ZM4,16L4,18L6,18L6,16L4,16ZM18,17C15.803,17 14,18.803 14,21C14,23.197 15.803,25 18,25C20.197,25 22,23.197 22,21C22,18.803 20.197,17 18,17ZM18,19C19.116,19 20,19.884 20,21C20,22.116 19.116,23 18,23C16.884,23 16,22.116 16,21C16,19.884 16.884,19 18,19ZM4,20L4,22L6,22L6,20L4,20Z" style="fill:rgb(213,216,221);fill-opacity:0.8;fill-rule:nonzero;"/>
    </g>
    <g transform="matrix(0.00926345,0,0,0.00926345,18.4508,7.80696)">
        <path d="M324.25,243.813L475.094,92.969C491.761,76.302 491.761,49.281 475.094,32.641L454.985,12.531C438.313,-4.141 411.292,-4.141 394.651,12.531L243.813,163.37L92.969,12.5C76.302,-4.167 49.281,-4.167 32.641,12.5L12.5,32.609C-4.167,49.281 -4.167,76.302 12.5,92.943L163.37,243.813L12.531,394.651C-4.141,411.323 -4.141,438.344 12.531,454.985L32.641,475.094C49.307,491.761 76.328,491.761 92.969,475.094L243.813,324.25L394.651,475.094C411.323,491.761 438.344,491.761 454.985,475.094L475.094,454.985C491.761,438.313 491.761,411.292 475.094,394.651L324.25,243.813Z" style="fill:rgb(243,160,161);fill-rule:nonzero;"/>
    </g>
</svg>
